X:1
T:Work to Do for Jesus
T:Work to Do for Jesus
T:Robert Lowry
T:Lucy Hall Walker Washington, 1869
T:Public Domain Courtesy of the Cyber Hymnal™
T:Public Domain Courtesy of the Cyber Hymnal™
C:Robert Lowry
Z:Public Domain
Z:Courtesy of the Cyber Hymnal™
%%score ( 1 2 ) ( 3 4 )
L:1/8
Q:1/4=100
M:4/4
K:Eb
V:1 treble 
V:2 treble 
V:3 bass 
V:4 bass 
V:1
 [EG]2 [EG]2 [GB]>[FA] [EG]>[FA] | [GB]2 [Ge]4 [Bd][Ac] | [GB]2 [Ac]2 [GB]2 [EG]2 | [DF]8 | %4
w: 1.~There is work to do for|Je- sus, Yes, a|glor- ious work to|do,|
w: 2.~There is work to do for|Je- sus, And we|hear the Sav- ior|say,|
w: 3.~Yes, there’s work to do for|Je- sus; Who will|an- swer to the|call?|
 [EG]2 [EG]2 [GB]>[FA] [EG]>[FA] | [GB]2 [Ge]4 [Ge][Ge] | [Fd]2 [Fc]2 [FB]2 [E=A]2 | %7
w: For a har- vest ful- ly|rip- ened, Rich and|gold- en, lies in|
w: “Why art stand- ing here so|i- dle, At the|noon- tide on the|
w: See! the vint- age is a-|bun- dant, There is|work to do for|
 [DB]6 [DB][FB] | [Ee]2 [Ge]2 [GB]2 [EG]2 | [EA]2 [Ac]4 [Ac][Ac] | [GB]2 [GB]2 [FA]2 [DF]2 | %11
w: view; With a|prayer to God our|Fa- ther, Let us|all the work pur-|
w: way? Ev- en|now I will ac-|cept thee, With the|rest thy wag- es|
w: all; God com-|mands that we should|la- bor, Tho’ the|task our hearts ap-|
 [EG]6 [DB][FB] | [Ee]2 [Ge]2 [GB]2 [EG]2 | [EA]2 [Ac]4 [Ac][Ac] | [GB]2 [GB]2 [FA]2 [DF]2 | E6 || %16
w: sue, For our|ris- en Lord is|call- ing, And the|har- vest- ers are|few.|
w: pay; Go and|la- bor in My|vine- yard Till the|clos- ing of the|day.”|
w: pall; For He|claim- eth our life|ser- vice, Till the|shades of death shall|fall.|
"^Refrain" !fermata![GB][FA] | [EG]>[EG] [EG]>[EG] [EG]>[DF] E>[EF] | %18
w: ||
w: Yes, there’s|work to do for Je- sus, And the|
w: ||
 [EG]>[FA] [GB]>[Ac] [GB]2 [GB]>[GB] | [Ge]2 [GB]2 [Ec]>[DB] [DA]>[EG] | [DF]6 [DB]>[FA] | %21
w: |||
w: har- vest is in view; There’s a|great work ev- ery- where to|do; There is|
w: |||
 [EG]>[EG] [EG]>[EG] [EG]>[DF] E>[EF] | [EG]>[FA] [GB]>[Ac] [GB]2 [GB]>[GB] | %23
w: ||
w: work to do for Je- sus, And the|har- vest- ers are few, There’s e-|
w: ||
 [Ge]2 [GB]>[FA] [EG]2 [DF]2 | E8 |] %25
w: ||
w: nough work for all to|do.|
w: ||
V:2
 x8 | x8 | x8 | x8 | x8 | x8 | x8 | x8 | x8 | x8 | x8 | x8 | x8 | x8 | x8 | E6 || x2 | x6 E3/2 x/ | %18
 x8 | x8 | x8 | x6 E3/2 x/ | x8 | x8 | E8 |] %25
V:3
 [E,B,]2 [E,B,]2 [E,B,]>[E,B,] [E,B,]>[E,B,] | [E,E]2 [E,B,]4 [E,E][E,E] | %2
 [E,E]2 [E,E]2 [E,E]2 [E,B,]2 | [B,,B,]8 | [E,B,]2 [E,B,]2 [E,B,]>[E,B,] [E,B,]>[E,B,] | %5
 [E,E]2 [E,B,]4 [E,B,][E,B,] | [F,B,]2 [F,E]2 [F,D]2 [F,C]2 | [B,,B,]6 B,[A,B,] | %8
 [G,B,]2 [E,B,]2 [E,B,]2 [E,B,]2 | [A,,C]2 [A,,E]4 [A,,E][A,,E] | %10
 [B,,E]2 [B,,B,]2 [B,,B,]2 [B,,B,]2 | [E,B,]6 B,[A,B,] | [G,B,]2 [E,B,]2 [E,B,]2 [E,B,]2 | %13
 [A,,C]2 [A,,E]4 [A,,E][A,,E] | [B,,E]2 [B,,B,]2 [B,,B,]2 [B,,A,]2 | [E,G,]6 || %16
 !fermata![E,B,][E,B,] | [E,B,]>[E,B,] [E,B,]>[E,B,] [E,B,]>[E,A,] [E,G,]>[E,A,] | %18
 [E,B,]>[E,B,] [E,E]>[E,E] [E,E]2 [E,E]>[E,E] | [E,B,]2 G,2 [A,E]>[G,E] [F,B,]>[E,B,] | %20
 [B,,B,]6 [B,,B,]>[B,,B,] | [E,B,]>[E,B,] [E,B,]>[E,B,] [E,B,]>[E,A,] [E,G,]>[E,A,] | %22
 [E,B,]>[E,B,] [E,E]>[E,E] [E,E]2 [E,E]>[E,E] | [E,B,]2 [G,E]>[A,C] B,2 [B,,A,]2 | [E,G,]8 |] %25
V:4
 x8 | x8 | x8 | x8 | x8 | x8 | x8 | x6 B, x | x8 | x8 | x8 | x6 B, x | x8 | x8 | x8 | x6 || x2 | %17
 x8 | x8 | x8 | x8 | x8 | x8 | x4 B,2 x2 | x8 |] %25

